!!!COM: Janáček, Leoš [Leo Eugen]
!!!OTL: Presto for Violincello and Piano
!!!OMV:
!!!example: 146
!!!work: Jan-29
**kern	**kern	**dynam	**kern	**dynam
*part2	*part2	*part2	*part1	*part1
*staff3	*staff2	*	*staff1	*
*I"Piano	*	*	*I"Violoncello	*
*I'Pno.	*	*	*I'Vc.	*
*clefF4	*clefG2	*	*clefF4	*
*k[f#]	*k[f#]	*	*k[f#]	*
*G:	*G:	*	*G:	*
*M3/8	*M3/8	*	*M3/8	*
=37	=	=	=	=
*	*^	*	*	*
4.EE 4.BB	8eeL	4.g 4.b	f	4.r	.
.	(8ee	.	.	.	.
.	8cc#XJ)	.	.	.	.
=38	=38	=38	=38	=38	=38
[4.ET	(8cc#XL	4.e 4.g	.	8EL	f
.	8b)	.	.	8E	.
.	8bJ	.	.	8C#XJ	.
=39	=39	=39	=39	=39	=39
4.E]	8eeL	4.g 4.b	.	(8C#XL	.
.	(8ee	.	.	8BB)	.
.	8cc#XJ)	.	.	8BBJ	.
*	*v	*v	*	*	*
=40	=40	=40	=40	=40
4E	4e^ 4g 4b	.	8EL	.
.	.	.	8E	.
8E	8e^ 8g 8b	.	8C#XJ	.
=41	=41	=41	=41	=41
*	*^	*	*	*
4.EE 4.BB	8eL 8g 8b	8ryy	.	4BB^	.
.	(8ee	4e 4g	.	.	.
.	8cc#XJ)	.	.	8BB^	.
=42	=42	=42	=42	=42	=42
[4.ET	(8cc#XL	4.e 4.g	.	8EL	.
.	8b)	.	.	8E	.
.	8bJ	.	.	8C#XJ	.
=43	=43	=43	=43	=43	=43
4.E]	8bL	4.B 4.e	.	(8C#XL	.
.	(8b	.	.	8BB)	.
.	8gJ)	.	.	8BBJ	.
*	*v	*v	*	*	*
==	==	==	==	==
*-	*-	*-	*-	*-
!!!CDT: 1854/07/03-1928/08/12
!!!CBL: Hukvaldy, Moravia
!!!CDL: Moravaská Ostrava, Czech Republic
!!!CNT: Czech
!!!AGN: Instrumental; Chamber
!!!MCN:
!!!MDT: 1948/06/15
!!!MGN:
!!!MLC: Brno, Czechia
!!!MPD: 1948
!!!MPN: Jrafjam, Jarek; Prušová, Zdenka
!!!ODT: 1910
!!!PDT: 1970
!!!excerpt-start-measure: 37
!!!excerpt-end-measure: 43
!!!excerpt-start-time: 0:16
!!!excerpt-end-time: 0:19
!!!EEV: 2020/01/17
!!!system-decoration: s1{(s2,s3)}
!!!ONB: Converted from MusicXML on 2020/01/17
